common.blocks/social-icon/_clear/social-icon_clear_telegram-primary.svg

<svg xmlns="http://www.w3.org/2000/svg" width="24" height="24" viewBox="0 0 24 24">
  <path fill="#000000" fill-rule="evenodd" d="M6.99548668,13.2487528 L8.48045576,17.7311218 C8.67645168,18.2243925 8.58045368,18.4217008 9.14644189,18.4217008 C9.58343279,18.4217008 9.77642877,18.2390079 10.0204237,18.0216035 L12.12038,16.1490018 L16.4852891,19.1086259 C17.2882723,19.5151175 17.8682603,19.3050207 18.0682561,18.4235277 L20.9341964,6.03695266 C21.2281903,4.95906487 20.4862058,4.46853457 19.7172218,4.78916052 L2.88757223,10.7412935 C1.73759617,11.163314 1.74559601,11.7515849 2.6775766,12.0128357 L6.99748664,13.2496663 L6.99548668,13.2487528 Z M7.99946578,12.6677896 L16.9952784,7.46287034 C17.4672686,7.2007061 17.9002596,7.34137959 17.545267,7.63094776 L9.44243573,14.3357753 L9.27743916,16.6057339 L7.99946578,12.668703 L7.99946578,12.6677896 Z"/>
</svg>

<svg xmlns="http://www.w3.org/2000/svg" width="24" height="24"><path fill-rule="evenodd" d="M6.995 13.249L8.48 17.73c.196.493.1.69.666.69.437 0 .63-.182.874-.4l2.1-1.872 4.365 2.96c.803.406 1.383.196 1.583-.685l2.866-12.387c.294-1.078-.448-1.568-1.217-1.248L2.887 10.74c-1.15.422-1.141 1.01-.21 1.272l4.32 1.237-.002-.001zM8 12.668l8.996-5.205c.472-.262.905-.122.55.168l-8.103 6.705-.165 2.27L8 12.669v-.001z"/></svg>
